X:216
T:Bremen Waltz,The. CJF.216
R:Waltz
S:C.J.Fox MS, 1829/33, Beverley,E.Yorks.
B:Kidson Coll.Mitchell Lib.M1805
O:England
A:East Yorkshire
Z:vmp.P J Headford 2000 & 2008
M:3/4
L:1/8
Q:3/4=60
K:C
“p”G2|\
c2c2c2|(ce)G2G2|(df)G2G2|(eg)G2G2|!
c2c2c2|(cd)(ef).g.e|(ag)(fe).d.c|.B2.d2:|!
|:(^fg)|G2G2(=fg)|G2G2de|(fe)(dc)(BA)|G2g2(^fg)|!
G2G2(=fg)|G2G2de|fefdcB|c4:|!
|:G2|” f”.G.c.e.gc’2|.e’.c’.g.ec2|(fe).f.d.B.G|.c2.e2″~”G2|!
.G.c.e.gc’2|.e’.c’.g.ec2|(df) (Bd) (GB)|” Fine”c4:|!
|:” f Minore”a2|(AB).c.de2|(fe).d.cB2|(ed)cBA2|.B2.E2e2|!
” f”(AB).c.de2|(fe).d.cB2|(dc).B.A^G2|” D.C.”A4:|

